X:1
T:Dakar, 87.87.87.87.87
T:Dakar, 87.87.87.87.87
T:Ward Rockwell, 1896
T:Public Domain Courtesy of the Cyber Hymnal™
C:Ward Rockwell, 1896
Z:Public Domain
Z:Courtesy of the Cyber Hymnal™
%%score ( 1 2 ) ( 3 4 )
L:1/8
Q:1/4=113
M:4/4
K:C
V:1 treble 
V:2 treble 
V:3 bass 
V:4 bass 
V:1
 [EG]>[EG] | [EG]2 [EG]2 [EG]2 [EG]2 | [EG]2 [EG]2 [EG]2 [EG]2 | [FA]2 [FA]2 [FA]2 [FA]2 | %4
 [EG]4 [EG]2 [E^G]2 | [EA]2 [EA]2 [EA]2 [EA]2 | [Ac]2 [Ac]2 [Ac]2 [Ac]2 | [GB]2 [DB]2 [DA]2 [DA]2 | %8
 [DG]4 G2 G2 | [FG]2 [FA]2 [FB]2 [Fd]2 | [Ed]2 [Ec]2 [Ec]2 [Ed]2 | [^Ge]2 [GB]2 [Ac]2 [Bd]2 | %12
 [Ac]4 [Ac]2 [Gc]2 | [^Fd]2 [FA]2 [FB]2 [Fc]2 | [Fc]2 [FB]2 [DA]2 G2 | %15
 [Gc]2"^riten." [CG]2 !>![DG]2 !>![DF]2 | !fermata![B,E]4"^tempo" [B,E]2 [B,E]2 | %17
 D2 [=Dc]2 [^DB]2 [DA]2 | [EG]2 !fermata![Ec]2 E2 F2 | G2 A2 !fermata![Gd]3 [Ec] | [Ec]4 |] %21
V:2
 x2 | x8 | x8 | x8 | x8 | x8 | x8 | x8 | x4 G2 G2 | x8 | x8 | x8 | x8 | x8 | x6 G2 | x8 | x8 | %17
 ^D2 x6 | x4 E2 F2 | G2 A2 x4 | x4 |] %21
V:3
 [C,C]>[C,C] | [C,C]2 [C,C]2 [C,C]2 [C,C]2 | [C,C]2 [G,C]2 [E,C]2 [C,C]2 | %3
 [F,C]2 C2 [A,C]2 [F,C]2 | [C,C]4 [C,C]2 [B,,D]2 | [A,,C]2 [A,,C]2 [A,,C]2 [A,,C]2 | %6
 [A,,E]2 [C,E]2 [E,E]2 [A,E]2 | [B,D]2 [G,D]2 [^F,C]2 [E,C]2 | [G,B,]4 [G,B,]2 [G,B,]2 | %9
 [G,B,]2 [G,C]2 [G,D]2 [^G,B,]2 | [A,B,]2 A,2 [A,C]2 [A,C]2 | [E,B,]2 [E,E]2 [E,E]2 [E,E]2 | %12
 [A,E]4 [A,E]2 [A,E]2 | [D,D]2 [D,D]2 [D,D]2 [D,D]2 | [G,D]2 [G,D]2 [F,B,]2 [F,B,]2 | %15
 [E,C]2 [E,C]2 [E,A,]2 [E,A,]2 | [E,^G,]4 [E,G,]2 [E,G,]2 | [F,A,]2 [F,A,]2 [^F,C]2 [F,C]2 | %18
 [G,C]2 !fermata![F,C]2 E,2 F,2 | G,2 A,2 !fermata![G,B,]3 [C,G,] | [C,G,]4 |] %21
V:4
 x2 | x8 | x8 | x2 C2 x4 | x8 | x8 | x8 | x8 | x8 | x8 | x2 A,2 x4 | x8 | x8 | x8 | x8 | x8 | x8 | %17
 x8 | x4 E,2 F,2 | G,2 A,2 x4 | x4 |] %21

